X:119
T:Brickland Races or Hornpipe. Le4.119
M:C|
L:1/8
Q:1/4=100
B:L.Leadley MS#4 c1850
Z:Village Music Project, 2016 Ruairidh Greig
K:A
E|A2(3cBA eAcA|eAaA gAfA|e2(3cBA eAcA|BEcE dEcE|
A2(3cBA eAcA|eAaA gAfA|(ef).e.d (ea).e.B|(BA).B.c A2:|
|:[G2E2] (G/F/E) BEGE|BEcE dEcE|A2(3cBA eAcA|eAaA gAfA|
cAce (ag).f.e|cAce (ag).f.e|ceaf fedc|BcdB "Da Capo" AGFE|]

